svgs/google_chrome.svg

<svg width="192" height="192" viewBox="0 0 192 192" fill="none" xmlns="http://www.w3.org/2000/svg">
<path d="M96 170C136.869 170 170 136.869 170 96C170 55.1309 136.869 22 96 22C55.1309 22 22 55.1309 22 96C22 136.869 55.1309 170 96 170Z" stroke="black" stroke-width="12" stroke-linecap="round" stroke-linejoin="round"/>
<path d="M96 124C111.464 124 124 111.464 124 96C124 80.536 111.464 68 96 68C80.536 68 68 80.536 68 96C68 111.464 80.536 124 96 124Z" stroke="black" stroke-width="12" stroke-linecap="round" stroke-linejoin="round"/>
<path d="M96 68H162" stroke="black" stroke-width="12"/>
<path d="M120.249 110L87.2487 167.158" stroke="black" stroke-width="12"/>
<path d="M71.7514 110L38.7514 52.8422" stroke="black" stroke-width="12"/>
</svg>

<svg width="192" height="192" fill="none" xmlns="http://www.w3.org/2000/svg"><path d="M96 170c40.869 0 74-33.131 74-74 0-40.87-33.131-74-74-74-40.87 0-74 33.13-74 74 0 40.869 33.13 74 74 74z" stroke="#000" stroke-width="12" stroke-linecap="round" stroke-linejoin="round"/><path d="M96 124c15.464 0 28-12.536 28-28s-12.536-28-28-28-28 12.536-28 28 12.536 28 28 28z" stroke="#000" stroke-width="12" stroke-linecap="round" stroke-linejoin="round"/><path d="M96 68h66M120.249 110l-33 57.158M71.751 110l-33-57.158" stroke="#000" stroke-width="12"/></svg>
